assets/icons/lesson-completed.svg

<svg width="40" height="40" viewBox="0 0 40 40" fill="none" xmlns="http://www.w3.org/2000/svg">
<path d="M24.7045 34.9227C22.3859 37.6235 18.23 37.696 15.8186 35.0778L15.6594 34.9049C14.5841 33.7374 13.0867 33.0483 11.5006 32.9908L11.2657 32.9823C7.70854 32.8535 5.06065 29.6495 5.60418 26.1318L5.64007 25.8995C5.88244 24.3309 5.48765 22.7305 4.5436 21.4546L4.40379 21.2656C2.28665 18.4043 3.14071 14.3364 6.22987 12.5681L6.43387 12.4513C7.81135 11.6628 8.81643 10.3563 9.22538 8.8227L9.28594 8.59558C10.2031 5.15628 13.9159 3.28774 17.2245 4.60041L17.443 4.6871C18.9183 5.27242 20.5664 5.24366 22.0204 4.6072L22.2358 4.51294C25.4965 3.0856 29.2724 4.82342 30.3089 8.22862L30.3774 8.45349C30.8396 9.97189 31.8897 11.2425 33.2938 11.9825L33.5018 12.092C36.6508 13.7515 37.6463 17.787 35.6303 20.7206L35.4972 20.9143C34.5982 22.2224 34.2595 23.8356 34.5565 25.3948L34.6005 25.6257C35.2664 29.1223 32.732 32.4167 29.1815 32.6696L28.947 32.6863C27.3638 32.7991 25.8914 33.5401 24.8576 34.7444L24.7045 34.9227Z" fill="white"/>
<path d="M13.75 19.9997L17.9167 24.1663L26.25 15.833" stroke="#1C7731" stroke-width="2" stroke-linecap="round" stroke-linejoin="round"/>
</svg>

<svg xmlns="http://www.w3.org/2000/svg" width="40" height="40" fill="none" viewBox="0 0 40 40"><path fill="#fff" d="M24.705 34.923a5.946 5.946 0 0 1-8.886.155l-.16-.173a5.95 5.95 0 0 0-4.158-1.914l-.235-.009a5.946 5.946 0 0 1-5.662-6.85l.036-.233a5.95 5.95 0 0 0-1.096-4.444l-.14-.19a5.946 5.946 0 0 1 1.826-8.697l.204-.117a5.95 5.95 0 0 0 2.791-3.628l.06-.227a5.946 5.946 0 0 1 7.94-3.996l.218.087a5.95 5.95 0 0 0 4.577-.08l.216-.094a5.946 5.946 0 0 1 8.073 3.716l.068.224a5.95 5.95 0 0 0 2.917 3.53l.208.109a5.946 5.946 0 0 1 2.128 8.629l-.133.193a5.95 5.95 0 0 0-.94 4.48l.043.232a5.946 5.946 0 0 1-5.419 7.044l-.234.016a5.95 5.95 0 0 0-4.09 2.058z"/><path stroke="#1c7731" stroke-linecap="round" stroke-linejoin="round" stroke-width="2" d="m13.75 20 4.167 4.166 8.333-8.333"/></svg>
